packages/icons/src/hand.svg

<svg width="15" height="15" viewBox="0 0 15 15" fill="none" xmlns="http://www.w3.org/2000/svg">
  <path
    fill-rule="evenodd"
    clip-rule="evenodd"
    d="M6.8113 1.64706C6.62188 2.87918 6.68268 3.88523 6.76848 5.30499C6.78415 5.56426 6.80065 5.83732 6.81661 6.12808C6.83111 6.39208 6.63758 6.62172 6.37495 6.65217C6.11232 6.68262 5.87138 6.50334 5.82509 6.24304L5.74754 5.80698C5.64402 5.16529 5.48355 4.25481 5.17807 3.44741C4.86241 2.61312 4.4486 2.04121 3.93436 1.86044C3.64994 1.76104 3.41901 1.84279 3.25868 2.01052C3.08746 2.18962 2.9976 2.47065 3.0627 2.75399C3.2146 3.34424 3.44627 3.9167 3.69836 4.51802C3.72082 4.57158 3.74346 4.62543 3.76621 4.67954C3.9954 5.22457 4.23619 5.7972 4.41644 6.39081L4.41691 6.39238C4.562 6.87586 4.65646 7.2595 4.73086 7.56165C4.76034 7.68138 4.78667 7.78831 4.81175 7.88359C4.86768 8.09606 4.77836 8.32014 4.59161 8.43588C4.40486 8.55161 4.16445 8.53188 3.99907 8.38725C3.73749 8.15848 3.515 7.92784 3.31817 7.71802C3.27627 7.67335 3.23602 7.63018 3.19705 7.58838C3.04777 7.42826 2.91712 7.28812 2.78334 7.16029C2.45989 6.85122 2.18398 6.68004 1.80585 6.64369L1.80324 6.64343C1.56117 6.61888 1.41402 6.66441 1.31756 6.72627C1.21899 6.78947 1.11988 6.90414 1.03784 7.1123C0.976576 7.28492 1.01515 7.62987 1.1929 7.96911L1.19728 7.97747C1.40086 8.38452 1.74475 8.81587 2.18141 9.29299C2.39739 9.52898 2.62872 9.76849 2.86934 10.0174L2.87966 10.0281C3.11546 10.2721 3.35962 10.5247 3.59713 10.7827C4.4288 11.6863 5.27706 12.7538 5.4627 14H11.5087C11.5636 12.4353 11.8756 11.268 12.2875 10.1346C12.4454 9.70041 12.6121 9.28412 12.7826 8.85829C13.1097 8.04139 13.4509 7.18937 13.7705 6.10824C14.0989 4.99737 14.0097 4.37033 13.8613 4.03984C13.717 3.71858 13.4914 3.61786 13.3816 3.59606C13.1381 3.54774 13.0384 3.60947 12.9698 3.67901C12.867 3.78316 12.7698 3.98273 12.6921 4.30269C12.6166 4.61345 12.5752 4.96517 12.533 5.32501L12.5298 5.35285C12.4924 5.67242 12.4505 6.03016 12.3665 6.30098C12.3383 6.40699 12.2819 6.50407 12.1979 6.57539C12.1382 6.6261 12.0104 6.70818 11.8309 6.69312C11.5424 6.66891 11.3712 6.42143 11.365 6.14783C11.356 5.75454 11.3883 5.35864 11.4074 4.96608C11.4428 4.23646 11.477 3.5337 11.4245 2.8342L11.4242 2.82934C11.3916 2.32997 11.0493 2.00228 10.7007 1.9228C10.5305 1.88401 10.369 1.90601 10.2347 1.9835C10.103 2.05946 9.95535 2.21318 9.8574 2.51394L9.85631 2.51726C9.81525 2.6404 9.77298 2.87753 9.73606 3.2124C9.70044 3.53542 9.67337 3.91279 9.65156 4.29418C9.6329 4.62033 9.61785 4.9584 9.60434 5.26194C9.58728 5.64529 9.57267 5.97357 9.55633 6.1532C9.54983 6.22459 9.52939 6.29493 9.49501 6.35785C9.47356 6.39711 9.36115 6.60947 9.07106 6.61843C8.77917 6.62744 8.63975 6.40057 8.61698 6.35919C8.55634 6.24899 8.55066 6.11807 8.54754 5.99283C8.54474 5.88064 8.54294 5.71798 8.54174 5.54767C8.53935 5.20582 8.53935 4.81919 8.53935 4.70952C8.53935 3.6657 8.53838 2.65372 8.44714 1.64372C8.39183 1.24127 8.06278 1.00455 7.6436 1.00005C7.22399 0.995552 6.87918 1.22704 6.8113 1.64706ZM9.41219 1.3617C9.21469 0.448484 8.39913 0.00810324 7.65433 0.00011154C6.86452 -0.00836308 5.98761 0.465881 5.82365 1.49037L5.82318 1.49334C5.78239 1.7584 5.75229 2.01481 5.7309 2.26652C5.39423 1.67364 4.92622 1.14894 4.2655 0.916859C3.58661 0.679312 2.9492 0.887087 2.53582 1.31952C2.13415 1.73971 1.94438 2.36742 2.09031 2.98746L2.09269 2.99713C2.26478 3.66808 2.52396 4.30316 2.77613 4.90465C2.79814 4.95717 2.8201 5.00941 2.84194 5.06139C3.02139 5.48842 3.19378 5.89866 3.33871 6.31256C2.96404 5.98142 2.51925 5.70796 1.90276 5.6484C1.48865 5.60663 1.10391 5.67536 0.777805 5.88444C0.454239 6.0919 0.240671 6.40405 0.104187 6.75406L0.100868 6.76281C-0.10184 7.31286 0.0663312 7.97157 0.304895 8.42897C0.573704 8.96474 0.996104 9.47904 1.44372 9.96813C1.67046 10.2159 1.91136 10.4652 2.15033 10.7124L2.15682 10.7191C2.39524 10.9658 2.63217 11.2109 2.86134 11.4599C3.80937 12.49 4.50002 13.4632 4.50002 14.5C4.50002 14.7761 4.72388 15 5.00002 15H12C12.2762 15 12.5 14.7761 12.5 14.5C12.5 12.8212 12.8021 11.6462 13.2274 10.4762C13.3653 10.0968 13.5216 9.70579 13.6868 9.29247C14.0238 8.44922 14.398 7.51298 14.7295 6.39175C15.0956 5.15324 15.0559 4.25904 14.7735 3.63017C14.487 2.99208 13.9798 2.6953 13.5763 2.6152C13.1276 2.52614 12.7367 2.60475 12.4268 2.83081C12.4253 2.80773 12.4236 2.78468 12.4219 2.76167C12.3587 1.8105 11.6907 1.12285 10.923 0.947821C10.5346 0.859287 10.1111 0.900393 9.73509 1.11724C9.61852 1.18446 9.51055 1.26623 9.41219 1.3617Z"
    fill="currentColor"
  />
</svg>

<svg xmlns="http://www.w3.org/2000/svg" width="15" height="15" fill="none"><path fill="currentColor" fill-rule="evenodd" d="M6.811 1.647c-.19 1.232-.128 2.238-.043 3.658l.049.823a.5.5 0 0 1-.992.115l-.077-.436c-.104-.642-.264-1.552-.57-2.36-.316-.834-.73-1.406-1.244-1.587a.61.61 0 0 0-.675.15.82.82 0 0 0-.196.744c.152.59.383 1.163.635 1.764l.068.162c.23.545.47 1.117.65 1.71v.002c.146.484.24.867.315 1.17l.08.322A.5.5 0 0 1 4 8.387a10 10 0 0 1-.68-.669l-.122-.13c-.15-.16-.28-.3-.414-.428-.323-.309-.599-.48-.977-.516h-.003c-.242-.025-.389.02-.485.082-.099.063-.198.178-.28.386-.061.173-.023.518.155.857l.004.008c.204.408.548.839.984 1.316q.326.352.688.724l.01.011c.236.244.48.497.718.755.832.903 1.68 1.97 1.866 3.217h6.046c.055-1.565.367-2.732.778-3.865.158-.435.325-.85.496-1.277.327-.817.668-1.669.988-2.75.328-1.11.239-1.738.09-2.068-.144-.321-.37-.422-.48-.444-.243-.048-.343.013-.411.083-.103.104-.2.304-.278.624a9 9 0 0 0-.159 1.022l-.003.028c-.038.32-.08.677-.163.948a.54.54 0 0 1-.17.274.5.5 0 0 1-.366.118c-.289-.024-.46-.272-.466-.545-.009-.393.023-.79.042-1.182.036-.73.07-1.432.018-2.132V2.83c-.033-.499-.376-.827-.724-.906a.64.64 0 0 0-.466.06c-.132.076-.28.23-.378.53v.004c-.042.123-.084.36-.12.695a21 21 0 0 0-.085 1.082c-.02.326-.034.664-.048.968-.017.383-.031.712-.048.891a.5.5 0 0 1-.061.205.48.48 0 0 1-.424.26.51.51 0 0 1-.454-.259c-.06-.11-.066-.24-.07-.366l-.005-.445c-.003-.342-.003-.729-.003-.838 0-1.044 0-2.056-.092-3.066-.055-.403-.384-.64-.803-.644s-.765.227-.833.647m2.601-.285C9.215.448 8.4.008 7.654 0c-.79-.008-1.666.466-1.83 1.49v.003q-.062.397-.093.774c-.337-.593-.805-1.118-1.465-1.35a1.61 1.61 0 0 0-1.73.403 1.82 1.82 0 0 0-.446 1.667l.003.01c.172.671.431 1.306.683 1.908l.066.156c.18.427.352.838.497 1.252-.375-.332-.82-.605-1.436-.665-.414-.041-.8.027-1.125.236-.324.208-.537.52-.674.87l-.003.009c-.203.55-.035 1.209.204 1.666.269.536.691 1.05 1.139 1.54.226.247.467.496.706.743l.007.007q.359.37.704.74C3.81 12.49 4.5 13.464 4.5 14.5a.5.5 0 0 0 .5.5h7a.5.5 0 0 0 .5-.5c0-1.679.302-2.854.727-4.024.138-.38.295-.77.46-1.184.337-.843.711-1.779 1.043-2.9.366-1.239.326-2.133.043-2.762-.286-.638-.793-.935-1.197-1.015-.448-.089-.84-.01-1.15.216l-.004-.07c-.063-.95-.731-1.638-1.499-1.813a1.64 1.64 0 0 0-1.188.17 1.6 1.6 0 0 0-.323.244" clip-rule="evenodd"/></svg>
